assets/Astronaut/Medium-Light/Flat/astronaut_flat_medium-light.svg

<svg width="32" height="32" viewBox="0 0 32 32" fill="none" xmlns="http://www.w3.org/2000/svg">
<path d="M21.61 18.47H10.4C7.17 20.39 6 23.97 6 28L5 29.99H11.5257L15.9866 28.2042L20.4726 29.99H27.02L26 28C26.1438 23.9726 24.85 20.39 21.61 18.47Z" fill="#D3D3D3"/>
<path d="M9.47003 19.87C8.23003 18.95 8.88003 16.99 10.42 16.99H21.6C23.13 16.99 23.78 18.96 22.55 19.87C20.72 21.23 18.46 22.03 16.01 22.03C13.56 22.03 11.3 21.22 9.47003 19.87Z" fill="#E6E6E6"/>
<path d="M23.01 19.45V29.99H27.01V27.62C26.92 24.33 25.38 21.41 23.01 19.45Z" fill="#E6E6E6"/>
<path d="M5.97278 27.8751L5.01599 28.9902L5.02001 29.99H7.01001L9.03001 29.98L8.98001 19.47C6.84337 21.2398 5.39627 23.8001 5.07056 26.7036L5.97278 27.8751Z" fill="#E6E6E6"/>
<path d="M18 25C18.5523 25 19 24.5523 19 24C19 23.4477 18.5523 23 18 23C17.4477 23 17 23.4477 17 24C17 24.5523 17.4477 25 18 25Z" fill="#F92F60"/>
<path d="M15 24C15 24.5523 14.5523 25 14 25C13.4477 25 13 24.5523 13 24C13 23.4477 13.4477 23 14 23C14.5523 23 15 23.4477 15 24Z" fill="#5092FF"/>
<path d="M7.37001 27.04V28.66C7.37001 28.85 7.22001 29 7.04001 29H5.02001L5.01001 27.5C5.02001 27.23 5.04001 26.96 5.07001 26.7H7.03001C7.22001 26.7 7.37001 26.85 7.37001 27.04Z" fill="#5092FF"/>
<path d="M6.86913 9H7.91107C7.75349 9.64059 7.66992 10.3104 7.66992 11C7.66992 12.0579 7.86662 13.0694 8.22547 14H6.86913C6.38961 14 6 13.61 6 13.13V9.87C6 9.39 6.38961 9 6.86913 9Z" fill="#9B9B9B"/>
<path d="M24.3301 11C24.3301 12.0579 24.1334 13.0694 23.7745 14H25.1309C25.6104 14 26 13.61 26 13.13V9.87C26 9.39 25.6104 9 25.1309 9H24.0884C24.2463 9.64059 24.3301 10.3104 24.3301 11Z" fill="#9B9B9B"/>
<path d="M12.3191 26H19.6809C20.1404 26 20.5 26.3582 20.5 26.8159V30H11.5V26.8159C11.5 26.3682 11.8696 26 12.3191 26Z" fill="#9B9B9B"/>
<path d="M15.75 19.1699C20.3063 19.1699 24 15.4763 24 10.9199C24 6.36357 20.3063 2.66992 15.75 2.66992C11.1937 2.66992 7.5 6.36357 7.5 10.9199C7.5 15.4763 11.1937 19.1699 15.75 19.1699Z" fill="#212121"/>
<path d="M10.75 8.18812C10.8253 6.41802 12.3341 5 14.1775 5H15.4852C15.7669 5 16.0084 5.16585 16.119 5.40976C16.5214 6.27805 17.4167 6.82439 18.3925 6.82439H19.8311C20.6359 6.86341 21.2697 7.51707 21.2495 8.30731L21.2375 8.80981L20.9276 13.6439C20.6559 15.5659 18.976 17 16.974 17H15.0627C13.0708 17 11.3808 15.5659 11.1192 13.6439L10.75 8.18812Z" fill="#EEBFAA"/>
<path d="M16.0005 13.7057C15.45 13.7057 14.9301 13.5669 14.4918 13.3212C14.3389 13.2358 14.186 13.4174 14.2777 13.5669C14.6447 14.1542 15.2767 14.5493 16.0005 14.5493C16.7243 14.5493 17.3563 14.1542 17.7233 13.5669C17.8151 13.4174 17.652 13.2465 17.5093 13.3212C17.0607 13.5669 16.551 13.7057 16.0005 13.7057Z" fill="#990838"/>
<path d="M12.18 10.28C12.33 9.65995 12.89 9.19995 13.56 9.19995C14.26 9.19995 14.83 9.68995 14.96 10.35C14.99 10.5 14.88 10.63 14.73 10.63H12.45C12.27 10.63 12.13 10.45 12.18 10.28Z" fill="white"/>
<path d="M19.83 10.28C19.68 9.65995 19.12 9.19995 18.45 9.19995C17.75 9.19995 17.18 9.68995 17.05 10.35C17.02 10.5 17.13 10.63 17.28 10.63H19.56C19.74 10.63 19.87 10.46 19.83 10.28Z" fill="white"/>
<path d="M12.86 10.39C12.86 9.88998 13.27 9.47998 13.77 9.47998C14.28 9.47998 14.69 9.88998 14.68 10.39C14.68 10.47 14.67 10.55 14.65 10.63H12.89C12.87 10.55 12.86 10.47 12.86 10.39Z" fill="#7D4533"/>
<path d="M19.15 10.39C19.15 9.88998 18.74 9.47998 18.24 9.47998C17.73 9.47998 17.33 9.88998 17.33 10.39C17.33 10.47 17.34 10.55 17.36 10.63H19.12C19.14 10.55 19.15 10.47 19.15 10.39Z" fill="#7D4533"/>
<path d="M13.77 9.87012C14.06 9.87012 14.29 10.1001 14.29 10.3901C14.29 10.4801 14.27 10.5601 14.23 10.6301H13.31C13.27 10.5601 13.25 10.4801 13.25 10.3901C13.25 10.1001 13.48 9.87012 13.77 9.87012Z" fill="black"/>
<path d="M18.24 9.87012C17.95 9.87012 17.72 10.1001 17.72 10.3901C17.72 10.4801 17.74 10.5601 17.78 10.6301H18.7C18.74 10.5601 18.76 10.4801 18.76 10.3901C18.76 10.1001 18.53 9.87012 18.24 9.87012Z" fill="black"/>
<path d="M13.62 10.0199C13.62 10.1082 13.5484 10.1799 13.46 10.1799C13.3717 10.1799 13.3 10.1082 13.3 10.0199C13.3 9.9315 13.3717 9.85986 13.46 9.85986C13.5484 9.85986 13.62 9.9315 13.62 10.0199Z" fill="white"/>
<path d="M18.12 10.0199C18.12 10.1082 18.0484 10.1799 17.96 10.1799C17.8717 10.1799 17.8 10.1082 17.8 10.0199C17.8 9.9315 17.8717 9.85986 17.96 9.85986C18.0484 9.85986 18.12 9.9315 18.12 10.0199Z" fill="white"/>
<path d="M15.6541 10.2897L15.1583 12.0282C15.0554 12.384 15.2986 12.75 15.6447 12.75H16.3743C16.7204 12.75 16.9636 12.384 16.8607 12.0282L16.365 10.2897C16.2621 9.90342 15.7663 9.90342 15.6541 10.2897Z" fill="#D19479"/>
<path d="M12.3451 8.42675C12.3916 8.45985 12.4473 8.4776 12.5044 8.47752C12.5662 8.47719 12.6261 8.45605 12.6744 8.41752C13.1162 8.1244 13.6481 7.99852 14.1744 8.06252C14.21 8.0671 14.2461 8.06448 14.2806 8.0548C14.3151 8.04513 14.3473 8.0286 14.3753 8.0062C14.4033 7.9838 14.4265 7.956 14.4436 7.92444C14.4606 7.89288 14.4711 7.85822 14.4744 7.82252C14.4817 7.75118 14.4608 7.67981 14.4161 7.62372C14.3715 7.56763 14.3066 7.5313 14.2354 7.52252C13.5663 7.43577 12.8888 7.60156 12.3354 7.98752C12.2904 8.02264 12.2575 8.07095 12.2413 8.1257C12.225 8.18044 12.2263 8.23888 12.245 8.29286C12.2636 8.34683 12.2986 8.39364 12.3451 8.42675Z" fill="#A56953"/>
<path d="M19.3464 8.42152C19.3941 8.45778 19.4524 8.47745 19.5124 8.47752C19.5695 8.47795 19.6264 8.46044 19.673 8.42746C19.7197 8.39449 19.7548 8.3477 19.7735 8.2937C19.7921 8.2397 19.7934 8.1812 19.7771 8.12645C19.7607 8.0717 19.7276 8.02346 19.6824 7.98852C19.1283 7.60389 18.4515 7.4379 17.7824 7.52252C17.7119 7.53297 17.6483 7.57045 17.605 7.62703C17.5617 7.6836 17.5421 7.75482 17.5505 7.82557C17.5588 7.89632 17.5943 7.96105 17.6496 8.00603C17.7048 8.05101 17.7754 8.07271 17.8464 8.06652C18.3728 8.00144 18.905 8.12741 19.3464 8.42152Z" fill="#A56953"/>
<path d="M16.01 6.80008C18.76 6.80008 21.29 7.72008 23.31 9.26008C23.31 5.88598 21.5946 2.70581 16.01 2.70581C11.4137 2.70581 8.3885 5.96355 8.71001 9.26008C10.73 7.72008 13.26 6.80008 16.01 6.80008Z" fill="#636363"/>
<path d="M18.03 15.6599H21C21.28 15.6599 21.5 15.4399 21.5 15.1599C21.5 14.8799 21.28 14.6599 21 14.6599H18.03C17.75 14.6599 17.53 14.8799 17.53 15.1599C17.53 15.4399 17.76 15.6599 18.03 15.6599Z" fill="#636363"/>
<path d="M21.07 14.2401C20.2 15.6001 18.79 16.5901 17.15 16.9101C16.71 16.9901 16.39 17.3701 16.39 17.8201V18.9701H18.52C21.04 18.1701 23.05 16.2101 23.9 13.7101H22.07C21.67 13.7001 21.29 13.9001 21.07 14.2401Z" fill="#9B9B9B"/>
<path d="M16 2C11.0255 2 7 6.02553 7 11C7 15.9745 11.0255 20 16 20C20.9745 20 25 15.9745 25 11C25 6.02553 20.9645 2 16 2ZM16 18.5017C11.8646 18.5017 8.49834 15.1354 8.49834 11C8.49834 6.8646 11.8646 3.49834 16 3.49834C20.1354 3.49834 23.5017 6.8646 23.5017 11C23.5017 15.1354 20.1354 18.5017 16 18.5017Z" fill="#D3D3D3"/>
</svg>

<svg xmlns="http://www.w3.org/2000/svg" width="32" height="32" fill="none"><path fill="#D3D3D3" d="M21.61 18.47H10.4C7.17 20.39 6 23.97 6 28l-1 1.99h6.526l4.46-1.786 4.487 1.786h6.547L26 28c.144-4.027-1.15-7.61-4.39-9.53Z"/><path fill="#E6E6E6" d="M9.47 19.87c-1.24-.92-.59-2.88.95-2.88H21.6c1.53 0 2.18 1.97.95 2.88a10.918 10.918 0 0 1-6.54 2.16c-2.45 0-4.71-.81-6.54-2.16Z"/><path fill="#E6E6E6" d="M23.01 19.45v10.54h4v-2.37c-.09-3.29-1.63-6.21-4-8.17ZM5.973 27.875l-.957 1.115.004 1h1.99l2.02-.01-.05-10.51a10.968 10.968 0 0 0-3.91 7.234l.903 1.171Z"/><path fill="#F92F60" d="M18 25a1 1 0 1 0 0-2 1 1 0 0 0 0 2Z"/><path fill="#5092FF" d="M15 24a1 1 0 1 1-2 0 1 1 0 0 1 2 0ZM7.37 27.04v1.62c0 .19-.15.34-.33.34H5.02l-.01-1.5c.01-.27.03-.54.06-.8h1.96c.19 0 .34.15.34.34Z"/><path fill="#9B9B9B" d="M6.87 9H7.91a8.363 8.363 0 0 0-.241 2c0 1.058.197 2.07.555 3H6.87A.87.87 0 0 1 6 13.13V9.87c0-.48.39-.87.87-.87ZM24.33 11a8.32 8.32 0 0 1-.555 3h1.356c.48 0 .869-.39.869-.87V9.87a.87.87 0 0 0-.87-.87h-1.042c.158.64.242 1.31.242 2ZM12.32 26h7.36c.46 0 .82.358.82.816V30h-9v-3.184c0-.448.37-.816.82-.816Z"/><path fill="#212121" d="M15.75 19.17a8.25 8.25 0 1 0 0-16.5 8.25 8.25 0 0 0 0 16.5Z"/><path fill="#EEBFAA" d="M10.75 8.188C10.825 6.418 12.334 5 14.178 5h1.307c.282 0 .523.166.634.41.402.868 1.298 1.414 2.273 1.414h1.44c.804.04 1.438.693 1.418 1.483l-.012.503-.31 4.834C20.656 15.566 18.976 17 16.974 17h-1.911c-1.992 0-3.682-1.434-3.944-3.356l-.369-5.456Z"/><path fill="#990838" d="M16 13.706c-.55 0-1.07-.14-1.508-.385-.153-.085-.306.096-.214.246.367.587.999.982 1.722.982.724 0 1.356-.395 1.723-.982.092-.15-.071-.32-.214-.246a3.118 3.118 0 0 1-1.509.385Z"/><path fill="#fff" d="M12.18 10.28c.15-.62.71-1.08 1.38-1.08.7 0 1.27.49 1.4 1.15a.23.23 0 0 1-.23.28h-2.28c-.18 0-.32-.18-.27-.35ZM19.83 10.28c-.15-.62-.71-1.08-1.38-1.08-.7 0-1.27.49-1.4 1.15-.03.15.08.28.23.28h2.28c.18 0 .31-.17.27-.35Z"/><path fill="#7D4533" d="M12.86 10.39c0-.5.41-.91.91-.91a.9.9 0 0 1 .91.91c0 .08-.01.16-.03.24h-1.76a.986.986 0 0 1-.03-.24ZM19.15 10.39c0-.5-.41-.91-.91-.91-.51 0-.91.41-.91.91 0 .08.01.16.03.24h1.76c.02-.08.03-.16.03-.24Z"/><path fill="#000" d="M13.77 9.87a.516.516 0 0 1 .46.76h-.92a.516.516 0 0 1 .46-.76ZM18.24 9.87a.516.516 0 0 0-.46.76h.92a.516.516 0 0 0-.46-.76Z"/><path fill="#fff" d="M13.62 10.02a.16.16 0 1 1-.32 0 .16.16 0 0 1 .32 0ZM18.12 10.02a.16.16 0 1 1-.32 0 .16.16 0 0 1 .32 0Z"/><path fill="#D19479" d="m15.654 10.29-.496 1.738c-.103.356.14.722.487.722h.73c.345 0 .589-.366.486-.722l-.496-1.738c-.103-.387-.599-.387-.71 0Z"/><path fill="#A56953" d="M12.345 8.427a.274.274 0 0 0 .33-.01 2.227 2.227 0 0 1 1.5-.354.267.267 0 0 0 .3-.24.274.274 0 0 0-.24-.3 2.712 2.712 0 0 0-1.9.465.274.274 0 0 0 .01.439ZM19.346 8.422a.275.275 0 0 0 .327.005.273.273 0 0 0 .01-.438 2.731 2.731 0 0 0-1.9-.466.274.274 0 0 0 .063.544 2.215 2.215 0 0 1 1.5.355Z"/><path fill="#636363" d="M16.01 6.8a12 12 0 0 1 7.3 2.46c0-3.374-1.715-6.554-7.3-6.554-4.596 0-7.622 3.258-7.3 6.554a12 12 0 0 1 7.3-2.46ZM18.03 15.66H21c.28 0 .5-.22.5-.5s-.22-.5-.5-.5h-2.97c-.28 0-.5.22-.5.5s.23.5.5.5Z"/><path fill="#9B9B9B" d="M21.07 14.24a6.041 6.041 0 0 1-3.92 2.67c-.44.08-.76.46-.76.91v1.15h2.13c2.52-.8 4.53-2.76 5.38-5.26h-1.83c-.4-.01-.78.19-1 .53Z"/><path fill="#D3D3D3" d="M16 2c-4.975 0-9 4.026-9 9 0 4.975 4.025 9 9 9 4.974 0 9-4.025 9-9 0-4.974-4.035-9-9-9Zm0 16.502c-4.135 0-7.502-3.367-7.502-7.502S11.865 3.498 16 3.498 23.502 6.865 23.502 11 20.135 18.502 16 18.502Z"/></svg>
